assets/info_backup_success.svg

<svg width="211" height="211" viewBox="0 0 211 211" fill="none" xmlns="http://www.w3.org/2000/svg">
    <defs>
        <linearGradient id="paint0_linear_3037_19" x1="-99.0858" y1="-101.737" x2="211.275" y2="210.588" gradientUnits="userSpaceOnUse">
            <stop stop-color="#FAF4EA"/>
            <stop offset="1" stop-color="#8B5EDB"/>
        </linearGradient>
        <linearGradient id="paint1_linear_3037_19" x1="69.4473" y1="31.5436" x2="105.554" y2="116.386" gradientUnits="userSpaceOnUse">
            <stop stop-color="#FFDA4E"/>
            <stop offset="1" stop-color="#FFC65E"/>
        </linearGradient>
        <clipPath id="clip0_3037_19">
            <rect width="211" height="211" fill="white"/>
        </clipPath>
    </defs>
    <g clip-path="url(#clip0_3037_19)">
<mask id="mask0_3037_19" style="mask-type:alpha" maskUnits="userSpaceOnUse" x="0" y="0" width="211" height="211">
<path d="M105.501 211C163.689 211 210.861 163.766 210.861 105.5C210.861 47.234 163.689 0 105.501 0C47.3119 0 0.140625 47.234 0.140625 105.5C0.140625 163.766 47.3119 211 105.501 211Z" fill="white"/>
</mask>
<g mask="url(#mask0_3037_19)">
<path d="M105.501 211C163.689 211 210.861 163.766 210.861 105.5C210.861 47.234 163.689 0 105.501 0C47.3119 0 0.140625 47.234 0.140625 105.5C0.140625 163.766 47.3119 211 105.501 211Z" fill="white"/>
</g>
<mask id="mask1_3037_19" style="mask-type:alpha" maskUnits="userSpaceOnUse" x="0" y="0" width="211" height="211">
<path d="M105.501 211C163.689 211 210.861 163.766 210.861 105.5C210.861 47.234 163.689 0 105.501 0C47.3119 0 0.140625 47.234 0.140625 105.5C0.140625 163.766 47.3119 211 105.501 211Z" fill="white"/>
</mask>
<g mask="url(#mask1_3037_19)">
<path opacity="0.522915" d="M105.501 211C163.689 211 210.861 163.766 210.861 105.5C210.861 47.234 163.689 0 105.501 0C47.3119 0 0.140625 47.234 0.140625 105.5C0.140625 163.766 47.3119 211 105.501 211Z" fill="url(#paint0_linear_3037_19)"/>
<path d="M105.473 116.42C125.369 116.42 141.498 100.27 141.498 80.3469C141.498 60.4241 125.369 44.2734 105.473 44.2734C85.5765 44.2734 69.4473 60.4241 69.4473 80.3469C69.4473 100.27 85.5765 116.42 105.473 116.42Z" fill="url(#paint1_linear_3037_19)"/>
<path opacity="0.777064" d="M144.002 83.125H66.9447C61.6034 83.125 57.2734 87.4607 57.2734 92.8091V267.142C57.2734 272.49 61.6034 276.826 66.9447 276.826H144.002C149.343 276.826 153.673 272.49 153.673 267.142V92.8091C153.673 87.4607 149.343 83.125 144.002 83.125Z" fill="#F0F1F6"/>
<path d="M144.955 76.959C153.114 76.959 159.729 83.5803 159.731 91.7497V268.198C159.731 276.37 153.116 282.994 144.955 282.994H65.9865C57.8262 282.994 51.2109 276.37 51.2109 268.198V91.7542C51.2109 83.583 57.8262 76.959 65.9865 76.959H144.955ZM131.093 88.2078C130.008 90.2388 127.895 91.5071 125.595 91.5076H85.3694C83.0695 91.5018 80.9575 90.2353 79.8666 88.2078L77.1443 83.1416H66.9447C61.6104 83.1416 57.2833 87.4664 57.2734 92.8078V267.14C57.2734 272.489 61.6034 276.824 66.9447 276.824H144.002C149.343 276.824 153.673 272.489 153.673 267.14V92.8257C153.673 87.4773 149.343 83.1416 144.002 83.1416H133.798L131.093 88.2078Z" fill="#7B3FE4"/>
<path d="M108.19 170.774V173.164H104.254V170.81C101.062 170.29 98.935 168.259 98.0664 164.981L101.805 163.932C102.481 166.483 103.739 167.483 106.094 167.483C108.333 167.483 109.833 166.483 109.833 164.672C109.833 163.381 109.09 162.48 106.027 161.982C101.16 161.085 98.6753 159.139 98.6753 155.651C98.6753 152.513 100.914 150.231 104.254 149.617V147.375H108.19V149.729C110.876 150.343 112.667 152.217 113.411 155.216L109.672 156.221C109.059 153.894 108.029 152.961 106.059 152.961C103.869 152.961 102.611 153.961 102.611 155.651C102.611 156.974 103.677 157.588 106.739 158.202C111.539 159.202 113.764 161.108 113.764 164.69C113.764 167.743 111.575 170.034 108.19 170.774Z" fill="#081132"/>
</g>
</g>
</svg>

<svg xmlns="http://www.w3.org/2000/svg" width="211" height="211" fill="none" viewBox="0 0 211 211">
    <g clip-path="url(#clip0)">
        <mask id="13bodipg9a" width="211" height="211" x="0" y="0" maskUnits="userSpaceOnUse">
            <path fill="#fff" d="M105.501 211c58.188 0 105.36-47.234 105.36-105.5S163.689 0 105.501 0C47.311 0 .141 47.234.141 105.5S47.31 211 105.5 211z"/>
        </mask>
        <g mask="url(#13bodipg9a)">
            <path fill="#fff" d="M105.501 211c58.188 0 105.36-47.234 105.36-105.5S163.689 0 105.501 0C47.311 0 .141 47.234.141 105.5S47.31 211 105.5 211z"/>
        </g>
        <mask id="jz5rb56d7b" width="211" height="211" x="0" y="0" maskUnits="userSpaceOnUse">
            <path fill="#fff" d="M105.501 211c58.188 0 105.36-47.234 105.36-105.5S163.689 0 105.501 0C47.311 0 .141 47.234.141 105.5S47.31 211 105.5 211z"/>
        </mask>
        <g mask="url(#jz5rb56d7b)">
            <path fill="url(#paint0_linear)" d="M105.501 211c58.188 0 105.36-47.234 105.36-105.5S163.689 0 105.501 0C47.311 0 .141 47.234.141 105.5S47.31 211 105.5 211z" opacity=".523"/>
            <path fill="url(#paint1_linear)" d="M105.473 116.42c19.896 0 36.025-16.15 36.025-36.073 0-19.923-16.129-36.074-36.025-36.074-19.897 0-36.026 16.151-36.026 36.074s16.13 36.073 36.026 36.073z"/>
            <path fill="#fff" d="M144.002 83.124H66.945c-5.342 0-9.672 4.336-9.672 9.684v174.333c0 5.348 4.33 9.684 9.672 9.684h77.057c5.341 0 9.671-4.336 9.671-9.684V92.808c0-5.348-4.33-9.684-9.671-9.684z" opacity=".777"/>
            <path fill="#E65B29" d="M144.955 76.96c8.159 0 14.773 6.621 14.776 14.79V268.2c0 8.172-6.615 14.796-14.776 14.796H65.986c-8.16 0-14.775-6.624-14.775-14.796V91.755c0-8.171 6.615-14.795 14.776-14.795h78.968zm-13.862 11.249c-1.085 2.03-3.198 3.299-5.498 3.3H85.369c-2.3-.006-4.412-1.273-5.502-3.3l-2.723-5.066h-10.2c-5.334 0-9.66 4.324-9.67 9.666V267.14c0 5.349 4.33 9.684 9.67 9.684h77.058c5.341 0 9.671-4.335 9.671-9.684V92.827c0-5.349-4.33-9.684-9.671-9.684h-10.204l-2.705 5.066z"/>
            <path fill="#231F20" d="M108.19 170.775v2.389h-3.936v-2.353c-3.192-.52-5.319-2.551-6.188-5.829l3.739-1.049c.676 2.551 1.934 3.551 4.289 3.551 2.239 0 3.739-1 3.739-2.811 0-1.291-.743-2.192-3.806-2.69-4.867-.897-7.352-2.843-7.352-6.331 0-3.138 2.239-5.42 5.579-6.034v-2.242h3.936v2.354c2.686.614 4.477 2.488 5.221 5.487l-3.739 1.005c-.613-2.327-1.643-3.26-3.613-3.26-2.19 0-3.448 1-3.448 2.69 0 1.323 1.066 1.937 4.128 2.551 4.8 1 7.025 2.906 7.025 6.488 0 3.053-2.189 5.344-5.574 6.084z"/>
        </g>
    </g>
    <defs>
        <linearGradient id="paint0_linear" x1="-99.086" x2="211.275" y1="-101.737" y2="210.588" gradientUnits="userSpaceOnUse">
            <stop stop-color="#FAF4EA"/>
            <stop offset="1" stop-color="#FFA600"/>
        </linearGradient>
        <linearGradient id="paint1_linear" x1="69.447" x2="105.554" y1="31.544" y2="116.386" gradientUnits="userSpaceOnUse">
            <stop stop-color="#FFDA4E"/>
            <stop offset="1" stop-color="#FFB326"/>
        </linearGradient>
        <clipPath id="clip0">
            <path fill="#fff" d="M0 0H211V211H0z"/>
        </clipPath>
    </defs>
</svg>
